; generated by PrusaSlicer 2.6.0 on 2023-08-12 at 22:50:50 UTC


;
;
; 

; external perimeters extrusion width = 0.45mm
; perimeters extrusion width = 0.45mm
; infill extrusion width = 0.45mm
; solid infill extrusion width = 0.45mm
; top infill extrusion width = 0.40mm
; first layer extrusion width = 0.42mm

;TYPE:Custom
;Start code PrusaSlicer CreatorPro2 2 printers E2 only (i.e. T1)
M118 X0 Y0 Z150 T1
G21 ; set units to metric
G90 ; absolute positioning
M107 ; start with the fan off
M140 S90 T0
M104 S245 T1
G28 ; move X/Y to min endstops
M132 X Y Z A B ; load offsets
G1 Z50.000 F420
G161 X Y F3300 ; home specifed axis
M7 T0
M6 T1
M651 S255
;layer_count: 13
M108 T1 ; switch to initial tool position
;Purge:2 -> Left
G1 X-110.00 Y-75.00 F6000
G1 Z2 F420
G1 Y-60.00 E15 F1200
;purge ended

G92 E0.0 ; reset extruder
G1 Y0 F1200 E0 ; move Y to min endstop and reset extruder
G92 E0.0 ; zero the current extruder coordinate
M117 CreatorPro2 E1 now Printing... ; Put now printing message on screen
G21 ; set units to millimeters
G90 ; use absolute coordinates
M82 ; use absolute distances for extrusion
G92 E0
; Filament gcode
M107
;LAYER_CHANGE
;Z:0.35
;HEIGHT:0.35
;BEFORE_LAYER_CHANGE
;0.35

G1 E-1.5 F1200
G92 E0
G1 Z.35 F7800
;AFTER_LAYER_CHANGE
;0.35
;layer:0
G1 X4.247 Y18.217
G1 E1.5 F1200
;TYPE:Skirt/Brim
;WIDTH:0.42
G1 F1800
G1 X-1.482 Y19.552 E1.79522
G1 X-2.852 Y19.733 E1.86457
G1 X-4.232 Y19.664 E1.93391
G1 X-5.794 Y19.27 E2.01476
G1 X-6.841 Y18.79 E2.07256
G1 X-7.528 Y18.367 E2.11305
G1 X-24.851 Y6.238 E3.17434
G1 X-25.517 Y5.707 E3.21709
G1 X-26.362 Y4.832 E3.27814
G1 X-27.176 Y3.622 E3.35133
G1 X-27.744 Y2.278 E3.42456
G1 X-28.045 Y.85 E3.4978
G1 X-28.069 Y-.608 E3.57098
G1 X-27.744 Y-2.278 E3.65636
G1 X-27.176 Y-3.622 E3.72959
G1 X-26.362 Y-4.832 E3.80278
G1 X-25.517 Y-5.707 E3.86383
G1 X-24.851 Y-6.238 E3.90658
G1 X-7.042 Y-18.676 E4.99674
G1 X-5.576 Y-19.346 E5.07763
G1 X-4.232 Y-19.664 E5.14694
G1 X-2.852 Y-19.733 E5.21628
G1 X-1.347 Y-19.522 E5.29255
G1 X23.194 Y-13.799 E6.55721
G1 X25.255 Y-12.911 E6.66984
G1 X26.878 Y-11.361 E6.78247
G1 X27.859 Y-9.343 E6.89508
G1 X28.098 Y-7.62 E6.98238
G1 X28.098 Y7.62 E7.74721
G1 X27.701 Y9.829 E7.85985
G1 X26.56 Y11.761 E7.97246
G1 X24.818 Y13.176 E8.08509
G1 X23.194 Y13.799 E8.17238
G1 X4.306 Y18.203 E9.14572
G1 E7.64572 F1200
G92 E0
G1 X-2.755 Y7.435 F7800
G1 E1.5 F1200
;TYPE:Perimeter
;WIDTH:0.42
G1 F1800
G1 X-2.79 Y7.582 E1.50758
G1 X-2.79 Y12.01 E1.7298
G1 X-2.828 Y12.256 E1.74229
G1 X-2.996 Y12.445 E1.75498
G1 X-3.183 Y12.478 E1.76451
G1 X-3.439 Y12.386 E1.77816
G1 X-20.59 Y.377 E2.82892
G1 X-20.733 Y.241 E2.83882
G1 X-20.83 Y.068 E2.84877
G1 X-20.805 Y-.13 E2.85879
G1 X-20.626 Y-.352 E2.8731
G1 X-3.471 Y-12.364 E3.92411
G1 X-3.227 Y-12.483 E3.93773
G1 X-3.059 Y-12.471 E3.94618
G1 X-2.857 Y-12.314 E3.95902
G1 X-2.79 Y-12.088 E3.97085
G1 X-2.79 Y-7.582 E4.19699
G1 X-2.695 Y-7.188 E4.21733
G1 X-2.538 Y-6.973 E4.23069
G1 X-2.271 Y-6.791 E4.24691
G1 X-1.928 Y-6.72 E4.26449
G1 X20.853 Y-6.72 E5.40777
G1 X20.853 Y6.72 E6.08227
G1 X-1.928 Y6.72 E7.22555
G1 X-2.271 Y6.791 E7.24313
G1 X-2.538 Y6.973 E7.25935
G1 X-2.695 Y7.188 E7.27271
G1 X-2.741 Y7.377 E7.28247
G1 X-2.428 Y7.509 F7800
G1 F1800
G1 X-2.446 Y7.582 E7.28624
G1 X-2.446 Y12.01 E7.50846
G1 X-2.501 Y12.38 E7.52723
G1 X-2.633 Y12.599 E7.54006
G1 X-2.835 Y12.756 E7.5529
G1 X-3.079 Y12.831 E7.56571
G1 X-3.333 Y12.814 E7.57849
G1 X-3.611 Y12.687 E7.59383
G1 X-20.787 Y.66 E8.64614
G1 X-21.074 Y.384 E8.66612
G1 X-21.175 Y.135 E8.67961
G1 X-21.175 Y-.135 E8.69316
G1 X-21.074 Y-.384 E8.70665
G1 X-20.851 Y-.615 E8.72276
G1 X-3.669 Y-12.646 E9.77543
G1 X-3.317 Y-12.822 E9.79518
G1 X-2.955 Y-12.805 E9.81337
G1 X-2.727 Y-12.686 E9.82628
G1 X-2.557 Y-12.496 E9.83907
G1 X-2.446 Y-12.104 E9.85952
G1 X-2.438 Y-7.493 E10.09093
G1 X-2.294 Y-7.217 E10.10655
G1 X-2.134 Y-7.108 E10.11627
G1 X-1.928 Y-7.065 E10.12683
G1 X21.198 Y-7.065 E11.28743
G1 X21.198 Y7.065 E11.99656
G1 X-1.928 Y7.065 E13.15716
G1 X-2.018 Y7.073 E13.16169
G1 X-2.294 Y7.217 E13.17731
G1 X-2.388 Y7.346 E13.18532
G1 X-2.414 Y7.45 E13.1907
G1 X-2.101 Y7.582 F7800
;TYPE:External perimeter
G1 F1800
G1 X-2.101 Y12.01 E13.41292
G1 X-2.173 Y12.505 E13.43802
G1 X-2.371 Y12.832 E13.4572
G1 X-2.673 Y13.067 E13.4764
G1 X-3.038 Y13.179 E13.49556
G1 X-3.419 Y13.154 E13.51472
G1 X-3.783 Y12.988 E13.5348
G1 X-20.985 Y.942 E14.58872
G1 X-21.369 Y.575 E14.61538
G1 X-21.52 Y.202 E14.63558
G1 X-21.52 Y-.202 E14.65586
G1 X-21.369 Y-.575 E14.67606
G1 X-21.076 Y-.879 E14.69725
G1 X-3.866 Y-12.929 E15.75161
G1 X-3.69 Y-13.03 E15.76179
G1 X-3.304 Y-13.171 E15.78241
G1 X-2.851 Y-13.14 E15.8052
G1 X-2.511 Y-12.963 E15.82444
G1 X-2.257 Y-12.678 E15.8436
G1 X-2.172 Y-12.453 E15.85567
G1 X-2.101 Y-12.12 E15.87276
G1 X-2.101 Y-7.582 E16.1005
G1 X-2.05 Y-7.461 E16.10709
G1 X-1.928 Y-7.41 E16.11373
G1 X21.543 Y-7.41 E17.29164
G1 X21.543 Y7.41 E18.03539
G1 X-1.928 Y7.41 E19.2133
G1 X-2.05 Y7.461 E19.21994
G1 X-2.078 Y7.527 E19.22354
G1 X-2.487 Y7.686 F7800
G1 E17.72354 F1200
G92 E0
G1 X-4.837 Y7.467 F7800
G1 E1.5 F1200
;TYPE:Perimeter
G1 F1800
G1 X-4.901 Y7.726 E1.51339
G1 X-5.068 Y7.946 E1.52725
G1 X-5.265 Y8.087 E1.53941
G1 X-5.527 Y8.174 E1.55326
G1 X-5.844 Y8.165 E1.56918
G1 X-6.158 Y8.028 E1.58637
G1 X-15.086 Y1.776 E2.13337
G1 X-15.468 Y1.429 E2.15927
G1 X-15.755 Y.999 E2.18522
G1 X-15.926 Y.567 E2.20854
G1 X-15.986 Y.25 E2.22473
G1 X-15.986 Y-.25 E2.24982
G1 X-15.924 Y-.573 E2.26633
G1 X-15.737 Y-1.035 E2.29134
G1 X-15.558 Y-1.311 E2.30785
G1 X-15.201 Y-1.68 E2.33362
G1 X-15.086 Y-1.776 E2.34114
G1 X-6.158 Y-8.028 E2.88814
G1 X-5.844 Y-8.165 E2.90533
G1 X-5.527 Y-8.174 E2.92125
G1 X-5.265 Y-8.087 E2.9351
G1 X-5.068 Y-7.946 E2.94726
G1 X-4.901 Y-7.726 E2.96112
G1 X-4.801 Y-7.322 E2.98201
G1 X-4.801 Y-5.167 E3.09016
G1 X-4.719 Y-4.887 E3.1048
G1 X-4.566 Y-4.754 E3.11497
G1 X-4.294 Y-4.71 E3.1288
G1 X16.675 Y-4.71 E4.18115
G1 X17.178 Y-4.648 E4.20658
G1 X17.58 Y-4.509 E4.22793
G1 X17.946 Y-4.294 E4.24923
G1 X18.264 Y-4.012 E4.27056
G1 X18.521 Y-3.673 E4.29191
G1 X18.706 Y-3.291 E4.31321
G1 X18.814 Y-2.88 E4.33454
G1 X18.843 Y-2.542 E4.35157
G1 X18.843 Y2.542 E4.60671
G1 X18.781 Y3.045 E4.63214
G1 X18.642 Y3.447 E4.65349
G1 X18.427 Y3.814 E4.67484
G1 X18.145 Y4.131 E4.69613
G1 X17.806 Y4.388 E4.71748
G1 X17.424 Y4.573 E4.73878
G1 X17.013 Y4.681 E4.76011
G1 X16.675 Y4.71 E4.77714
G1 X-4.344 Y4.71 E5.832
G1 X-4.623 Y4.792 E5.84659
G1 X-4.757 Y4.945 E5.8568
G1 X-4.801 Y5.216 E5.87058
G1 X-4.801 Y7.322 E5.97627
G1 X-4.823 Y7.409 E5.98077
G1 X-5.164 Y7.395 F7800
G1 F1800
G1 X-5.206 Y7.564 E5.98951
G1 X-5.424 Y7.781 E6.00495
G1 X-5.582 Y7.833 E6.0133
G1 X-5.882 Y7.791 E6.0285
G1 X-5.96 Y7.746 E6.03302
G1 X-14.889 Y1.494 E6.58006
G1 X-15.194 Y1.221 E6.6006
G1 X-15.434 Y.873 E6.62182
G1 X-15.605 Y.44 E6.64518
G1 X-15.641 Y0 E6.66734
G1 X-15.604 Y-.443 E6.68965
G1 X-15.417 Y-.906 E6.71471
G1 X-15.309 Y-1.071 E6.72461
G1 X-14.889 Y-1.494 E6.75453
G1 X-5.96 Y-7.746 E7.30157
G1 X-5.772 Y-7.828 E7.31186
G1 X-5.582 Y-7.833 E7.3214
G1 X-5.306 Y-7.696 E7.33686
G1 X-5.206 Y-7.564 E7.34517
G1 X-5.146 Y-7.257 E7.36087
G1 X-5.146 Y-5.133 E7.46746
G1 X-5.082 Y-4.81 E7.48399
G1 X-4.929 Y-4.582 E7.49777
G1 X-4.7 Y-4.429 E7.51159
G1 X-4.294 Y-4.365 E7.53222
G1 X16.675 Y-4.365 E8.58457
G1 X17.078 Y-4.318 E8.60493
G1 X17.417 Y-4.204 E8.62288
G1 X17.728 Y-4.027 E8.64084
G1 X17.998 Y-3.793 E8.65877
G1 X18.217 Y-3.51 E8.67673
G1 X18.376 Y-3.191 E8.69462
G1 X18.47 Y-2.846 E8.71257
G1 X18.498 Y-2.542 E8.72789
G1 X18.498 Y2.542 E8.98303
G1 X18.451 Y2.945 E9.00339
G1 X18.337 Y3.284 E9.02134
G1 X18.16 Y3.595 E9.0393
G1 X17.926 Y3.865 E9.05723
G1 X17.643 Y4.084 E9.07519
G1 X17.324 Y4.243 E9.09308
G1 X16.979 Y4.337 E9.11103
G1 X16.675 Y4.365 E9.12635
G1 X-4.378 Y4.365 E10.18291
G1 X-4.7 Y4.429 E10.19939
G1 X-4.929 Y4.582 E10.21321
G1 X-5.082 Y4.81 E10.22699
G1 X-5.146 Y5.216 E10.24762
G1 X-5.149 Y7.336 E10.35401
G1 X-5.491 Y7.322 F7800
;TYPE:External perimeter
G1 F1800
G1 X-5.544 Y7.447 E10.36082
G1 X-5.699 Y7.491 E10.36891
G1 X-5.762 Y7.463 E10.37237
G1 X-14.691 Y1.211 E10.91941
G1 X-14.919 Y1.012 E10.9346
G1 X-15.113 Y.746 E10.95112
G1 X-15.297 Y.25 E10.97767
G1 X-15.284 Y-.314 E11.00598
G1 X-15.061 Y-.832 E11.03428
G1 X-14.691 Y-1.211 E11.06086
G1 X-5.762 Y-7.463 E11.6079
G1 X-5.636 Y-7.492 E11.61439
G1 X-5.511 Y-7.403 E11.62209
G1 X-5.491 Y-6.679 E11.65844
G1 X-5.491 Y-5.099 E11.73773
G1 X-5.407 Y-4.676 E11.75937
G1 X-5.178 Y-4.333 E11.78007
G1 X-4.835 Y-4.104 E11.80077
G1 X-4.294 Y-4.02 E11.82825
G1 X16.675 Y-4.02 E12.8806
G1 X16.978 Y-3.988 E12.89589
G1 X17.255 Y-3.9 E12.91048
G1 X17.509 Y-3.761 E12.92501
G1 X17.731 Y-3.574 E12.93958
G1 X17.912 Y-3.348 E12.95411
G1 X18.046 Y-3.091 E12.96866
G1 X18.127 Y-2.812 E12.98324
G1 X18.153 Y-2.542 E12.99685
G1 X18.153 Y2.542 E13.25199
G1 X18.121 Y2.845 E13.26728
G1 X18.033 Y3.122 E13.28187
G1 X17.894 Y3.376 E13.2964
G1 X17.707 Y3.598 E13.31097
G1 X17.481 Y3.779 E13.3255
G1 X17.223 Y3.913 E13.34009
G1 X16.945 Y3.994 E13.35462
G1 X16.675 Y4.02 E13.36823
G1 X-4.412 Y4.02 E14.4265
G1 X-4.835 Y4.104 E14.44814
G1 X-5.178 Y4.333 E14.46884
G1 X-5.407 Y4.676 E14.48954
G1 X-5.491 Y5.216 E14.51697
G1 X-5.491 Y7.262 E14.61965
G1 X-5.396 Y7.42 F7800
G1 E13.11965 F1200
G92 E0
G1 X20.75 Y-5.913 F7800
G1 E1.5 F1200
;TYPE:Solid infill
;WIDTH:0.423299
G1 F1800
G1 X20.201 Y-6.462 E1.53934
G1 X19.708 Y-6.462 E1.56432
G1 X20.594 Y-5.575 E1.62784
G1 X20.594 Y-5.083 E1.65277
G1 X19.216 Y-6.462 E1.75154
G1 X18.723 Y-6.462 E1.77652
G1 X20.594 Y-4.591 E1.91058
G1 X20.594 Y-4.098 E1.93556
G1 X18.231 Y-6.462 E2.10491
G1 X17.739 Y-6.462 E2.12984
G1 X20.594 Y-3.606 E2.33444
G1 X20.594 Y-3.113 E2.35942
G1 X17.246 Y-6.462 E2.59935
G1 X16.754 Y-6.462 E2.62428
G1 X20.594 Y-2.621 E2.89946
G1 X20.594 Y-2.128 E2.92444
G1 X16.261 Y-6.462 E3.23495
G1 X15.769 Y-6.462 E3.25988
G1 X17.38 Y-4.851 E3.37531
G1 X17.696 Y-4.74 E3.39228
G1 X17.934 Y-4.613 E3.40595
G1 X18.313 Y-4.328 E3.42998
G1 X18.63 Y-3.974 E3.45406
G1 X18.871 Y-3.567 E3.47803
G1 X18.985 Y-3.246 E3.49529
G1 X20.594 Y-1.636 E3.61061
G1 X20.594 Y-1.144 E3.63554
G1 X19.093 Y-2.645 E3.74309
G1 X19.101 Y-2.144 E3.76848
G1 X20.594 Y-.651 E3.87546
G1 X20.594 Y-.159 E3.90039
G1 X19.101 Y-1.652 E4.00737
G1 X19.101 Y-1.16 E4.0323
G1 X20.594 Y.334 E4.13931
G1 X20.594 Y.826 E4.16424
G1 X19.101 Y-.667 E4.27122
G1 X19.101 Y-.175 E4.29615
G1 X20.594 Y1.318 E4.40313
G1 X20.594 Y1.811 E4.42811
G1 X19.101 Y.318 E4.53509
G1 X19.101 Y.81 E4.56002
G1 X20.594 Y2.303 E4.667
G1 X20.594 Y2.796 E4.69198
G1 X19.101 Y1.303 E4.79896
G1 X19.101 Y1.795 E4.82389
G1 X20.594 Y3.288 E4.93087
G1 X20.594 Y3.78 E4.9558
G1 X19.101 Y2.287 E5.06278
G1 X19.081 Y2.76 E5.08677
G1 X20.594 Y4.273 E5.19518
G1 X20.594 Y4.765 E5.22011
G1 X19.007 Y3.178 E5.33382
G1 X18.88 Y3.544 E5.35345
G1 X20.594 Y5.258 E5.47626
G1 X20.594 Y5.75 E5.50119
G1 X18.7 Y3.856 E5.6369
G1 X18.631 Y3.973 E5.64378
G1 X18.493 Y4.141 E5.6548
G1 X20.594 Y6.243 E5.80538
G1 X20.594 Y6.462 E5.81648
G1 X20.321 Y6.462 E5.83031
G1 X18.239 Y4.379 E5.97953
G1 X18.107 Y4.497 E5.9885
G1 X17.954 Y4.587 E5.99749
G1 X19.829 Y6.462 E6.13184
G1 X19.336 Y6.462 E6.15682
G1 X17.638 Y4.764 E6.27849
G1 X17.268 Y4.886 E6.29823
G1 X18.844 Y6.462 E6.41115
G1 X18.351 Y6.462 E6.43613
G1 X16.846 Y4.956 E6.544
G1 X16.361 Y4.964 E6.56858
G1 X17.859 Y6.462 E6.67592
G1 X17.367 Y6.462 E6.70085
G1 X15.869 Y4.964 E6.80819
G1 X15.376 Y4.964 E6.83317
G1 X16.874 Y6.462 E6.94051
G1 X16.382 Y6.462 E6.96544
G1 X14.884 Y4.964 E7.07278
G1 X14.392 Y4.964 E7.09771
G1 X15.889 Y6.462 E7.20501
G1 X15.397 Y6.462 E7.22994
G1 X13.9 Y4.964 E7.33724
G1 X13.407 Y4.964 E7.36222
G1 X14.905 Y6.462 E7.46956
G1 X14.412 Y6.462 E7.49454
G1 X12.915 Y4.964 E7.60184
G1 X12.423 Y4.964 E7.62677
G1 X13.92 Y6.462 E7.73407
G1 X13.427 Y6.462 E7.75905
G1 X11.93 Y4.965 E7.86631
G1 X11.438 Y4.965 E7.89124
G1 X12.935 Y6.462 E7.9985
G1 X12.442 Y6.462 E8.02348
G1 X10.946 Y4.965 E8.13071
G1 X10.453 Y4.965 E8.15569
G1 X11.95 Y6.462 E8.26295
G1 X11.458 Y6.462 E8.28788
G1 X9.961 Y4.965 E8.39514
G1 X9.469 Y4.965 E8.42007
G1 X10.965 Y6.462 E8.5273
G1 X10.473 Y6.462 E8.55223
G1 X8.977 Y4.965 E8.65946
G1 X8.484 Y4.965 E8.68444
G1 X9.98 Y6.462 E8.79167
G1 X9.488 Y6.462 E8.8166
G1 X7.992 Y4.966 E8.92379
G1 X7.5 Y4.966 E8.94872
G1 X8.996 Y6.462 E9.05591
G1 X8.503 Y6.462 E9.08089
G1 X7.007 Y4.966 E9.18808
G1 X6.515 Y4.966 E9.21301
G1 X8.011 Y6.462 E9.3202
G1 X7.518 Y6.462 E9.34518
G1 X6.023 Y4.966 E9.45234
G1 X5.53 Y4.966 E9.47732
G1 X7.026 Y6.462 E9.58451
G1 X6.534 Y6.462 E9.60944
G1 X5.038 Y4.966 E9.71663
G1 X4.546 Y4.966 E9.74156
G1 X6.041 Y6.462 E9.84872
G1 X5.549 Y6.462 E9.87365
G1 X4.054 Y4.966 E9.98081
G1 X3.561 Y4.967 E10.00579
G1 X5.056 Y6.462 E10.11291
G1 X4.564 Y6.462 E10.13784
G1 X3.069 Y4.967 E10.24496
G1 X2.577 Y4.967 E10.26989
G1 X4.071 Y6.462 E10.37697
G1 X3.579 Y6.462 E10.4019
G1 X2.084 Y4.967 E10.50902
G1 X1.592 Y4.967 E10.53395
G1 X3.087 Y6.462 E10.64107
G1 X2.594 Y6.462 E10.66605
G1 X1.1 Y4.967 E10.77313
G1 X.608 Y4.967 E10.79806
G1 X2.102 Y6.462 E10.90514
G1 X1.609 Y6.462 E10.93012
G1 X.115 Y4.967 E11.0372
G1 X-.377 Y4.968 E11.06213
G1 X1.117 Y6.462 E11.16918
G1 X.625 Y6.462 E11.19411
G1 X-.869 Y4.968 E11.30116
G1 X-1.362 Y4.968 E11.32614
G1 X.132 Y6.462 E11.43319
G1 X-.36 Y6.462 E11.45812
G1 X-1.854 Y4.968 E11.56517
G1 X-2.346 Y4.968 E11.5901
G1 X-.853 Y6.462 E11.69711
G1 X-1.345 Y6.462 E11.72204
G1 X-2.839 Y4.968 E11.82909
G1 X-3.331 Y4.968 E11.85402
G1 X-1.837 Y6.462 E11.96107
G1 X-2.123 Y6.478 E11.97558
G1 X-2.269 Y6.522 E11.98331
G1 X-3.823 Y4.968 E12.09466
G1 X-4.315 Y4.968 E12.11959
G1 X-2.587 Y6.697 E12.24344
G1 X-2.721 Y6.788 E12.25165
G1 X-2.834 Y6.943 E12.26137
G1 X-4.542 Y5.234 E12.38379
G1 X-4.542 Y5.727 E12.40877
G1 X-2.992 Y7.277 E12.51983
G1 X-3.039 Y7.425 E12.5277
G1 X-3.04 Y7.721 E12.5427
G1 X-4.542 Y6.219 E12.65032
G1 X-4.542 Y6.711 E12.67525
G1 X-3.041 Y8.213 E12.78284
G1 X-3.042 Y8.704 E12.80772
G1 X-4.542 Y7.204 E12.9152
G1 X-4.559 Y7.519 E12.93118
G1 X-4.6 Y7.638 E12.93756
G1 X-3.043 Y9.195 E13.04912
G1 X-3.044 Y9.687 E13.07405
G1 X-4.763 Y7.968 E13.19722
G1 X-4.888 Y8.133 E13.20771
G1 X-5.006 Y8.217 E13.21505
G1 X-3.045 Y10.178 E13.35556
G1 X-3.046 Y10.669 E13.38044
G1 X-5.335 Y8.38 E13.54445
G1 X-5.488 Y8.43 E13.55261
G1 X-5.786 Y8.422 E13.56771
G1 X-3.047 Y11.161 E13.76397
G1 X-3.048 Y11.652 E13.78885
G1 X-6.821 Y7.879 E14.05919
G1 X-8.467 Y6.725 E14.16104
G1 X-3.067 Y12.125 E14.54796
G1 X-3.111 Y12.206 E14.55263
G1 X-3.191 Y12.216 E14.55671
G1 X-3.31 Y12.161 E14.56335
G1 X-4.025 Y11.66 E14.60758
G1 X-10.114 Y5.572 E15.04384
G1 X-11.76 Y4.418 E15.14569
G1 X-5.668 Y10.51 E15.5822
G1 X-7.31 Y9.36 E15.68377
G1 X-14.039 Y2.631 E16.16592
G1 E14.66592 F1200
G92 E0
G1 X-2.893 Y-11.829 F7800
G1 E1.5 F1200
G1 F1800
G1 X-3.252 Y-12.187 E1.52569
G1 X-3.55 Y-11.993 E1.54371
G1 X-3.048 Y-11.491 E1.57968
G1 X-3.047 Y-10.997 E1.60471
G1 X-3.839 Y-11.79 E1.66149
G1 X-4.129 Y-11.587 E1.67943
G1 X-3.046 Y-10.504 E1.75703
G1 X-3.045 Y-10.01 E1.78206
G1 X-4.419 Y-11.384 E1.88051
G1 X-4.708 Y-11.182 E1.89837
G1 X-3.044 Y-9.517 E2.01764
G1 X-3.042 Y-9.023 E2.04267
G1 X-4.998 Y-10.979 E2.18282
G1 X-5.288 Y-10.776 E2.20076
G1 X-3.041 Y-8.53 E2.36173
G1 X-3.04 Y-8.036 E2.38676
G1 X-5.689 Y-10.685 E2.57657
G1 E1.07657 F1200
G92 E0
G1 X15.121 Y-6.617 F7800
G1 E1.5 F1200
G1 F1800
G1 X16.778 Y-4.96 E1.61873
G1 X16.277 Y-4.968 E1.64412
G1 X14.784 Y-6.462 E1.75113
G1 X14.292 Y-6.462 E1.77606
G1 X15.785 Y-4.968 E1.88307
G1 X15.292 Y-4.968 E1.90805
G1 X13.799 Y-6.462 E2.01506
G1 X13.307 Y-6.462 E2.03999
G1 X14.8 Y-4.968 E2.147
G1 X14.308 Y-4.968 E2.17193
G1 X12.814 Y-6.462 E2.27898
G1 X12.322 Y-6.462 E2.30391
G1 X13.815 Y-4.968 E2.41092
G1 X13.323 Y-4.968 E2.43585
G1 X11.83 Y-6.462 E2.54286
G1 X11.337 Y-6.462 E2.56784
G1 X12.83 Y-4.968 E2.67485
G1 X12.338 Y-4.968 E2.69978
G1 X10.845 Y-6.462 E2.80679
G1 X10.352 Y-6.462 E2.83177
G1 X11.846 Y-4.968 E2.93882
G1 X11.353 Y-4.968 E2.9638
G1 X9.86 Y-6.462 E3.07081
G1 X9.368 Y-6.462 E3.09574
G1 X10.861 Y-4.968 E3.20275
G1 X10.368 Y-4.968 E3.22773
G1 X8.875 Y-6.462 E3.33474
G1 X8.383 Y-6.462 E3.35967
G1 X9.876 Y-4.968 E3.46668
